X:1
T:Title
%%score { ( 1 3 ) | ( 2 4 ) }
L:1/8
Q:1/4=100
M:4/4
K:C
V:1 treble nm="Grand Piano"
V:3 treble 
V:2 bass 
V:4 bass 
V:1
 [EG][FA][EG][DF] [CE]2 [FA]2 | [EG]4 [Ec]2 [Ec][GB] | [FA]2 [Ac]2 [GB]2 [FA]2 | [EG]6 z2 | %4
w: F.~S.~Shepard * * * * *||||
 [EG][FA][EG][DF] [CE]2 [FA]2 | [EG]4 [Ec]2 [Ec][Ec] | B2 [FA]2 [FG]2 [Fd]2 |[M:3/4] [Ec]6 | %8
w: ||||
[M:1/4] cB |[M:4/4] [FA]2 [FA]2 z4 | [EG]4 z4 | D6 z2 |[M:3/4] E6 |[M:1/4] GG | %14
w: ||||||
[M:4/4] [FA]2 [FA]2 z4 | [EG]4 z4 | [FB]2 [FA]2 [FG]2 [Fd]2 | [Ec]6 z2 |] %18
w: ||||
V:2
 [C,C][C,C][C,C][C,G,] [C,G,]2 [C,C]2 | [C,C]4 [C,G,]2 [C,C][E,C] | [F,C]2 [F,C]2 [F,C]2 [F,C]2 | %3
 [C,C]6 z2 | [C,C][C,C][C,C][C,G,] [C,G,]2 [C,C]2 | [C,C]4 [C,G,]2 [C,G,][C,G,] | %6
 [G,F]2 [G,,G,]2 [G,,G,]2 [G,,G,]2 |[M:3/4] [C,G,]6 |[M:1/4][K:treble] EG | %9
[M:4/4][K:bass] F,F,F,F, [F,A,F]2 [F,CF]2 | [C,C]C,C,C, [C,G,C]2[K:treble] DC | B,6 FE | %12
[M:3/4] C6[K:bass] |[M:1/4] EE |[M:4/4] F,F,F,F, [F,A,F]2 [F,CF]2 | %15
 [C,C]C,C,C, [C,G,]2 [C,G,][C,G,] | [G,,G,]2 [G,,G,]2 [G,,G,]2 [G,,B,]2 | [C,G,C]6 z2 |] %18
V:3
 x8 | x8 | x8 | x8 | x8 | x8 | x8 |[M:3/4] x6 |[M:1/4] x2 |[M:4/4] CCCC c2 A2 | z CCC E2 FE | %11
 z2 G,G, G,2 AG |[M:3/4] z2 G,G, G,2 |[M:1/4] x2 |[M:4/4] CCCC c2 A2 | z CCC [Ec]2 [Ec][Ec] | x8 | %17
 x8 |] %18
V:4
 x8 | x8 | x8 | x8 | x8 | x8 | x8 |[M:3/4] x6 |[M:1/4][K:treble] x2 |[M:4/4][K:bass] x8 | %10
 x6[K:treble] x2 | x8 |[M:3/4] z2[K:bass] C,C, C,2 |[M:1/4] x2 |[M:4/4] x8 | x8 | x8 | x8 |] %18

